robot-vacuum-variant-off.svg

<svg fill="currentColor" viewBox="0 0 24 24"><path d="m20.8 22.7-3.5-3.5C15.8 20.3 14 21 12 21c-5 0-9-4-9-9V9h2v3c0 3.9 3.1 7 7 7 1.4 0 2.8-.5 3.9-1.2L14 15.9c-.5.6-1.2 1.1-2 1.1-1.4 0-2.5-1.1-2.5-2.5 0-.8.4-1.6 1.1-2L5 6.9V7H3V4.9L1.1 3l1.3-1.3 19.7 19.7zM19 5v2h2V5c0-1.1-.9-2-2-2H6.2l2 2zm0 7c0 1.1-.3 2.1-.7 3.1l1.5 1.5c.8-1.3 1.2-2.9 1.2-4.6V9h-2zm-3-3V7h-5.8l2 2z"/></svg>

<svg  viewBox="0 0 24 24" fill="currentColor"><path  d="M20.8 22.7L17.3 19.2C15.8 20.3 14 21 12 21C7 21 3 17 3 12V9H5V12C5 15.9 8.1 19 12 19C13.4 19 14.8 18.5 15.9 17.8L14 15.9C13.5 16.5 12.8 17 12 17C10.6 17 9.5 15.9 9.5 14.5C9.5 13.7 9.9 12.9 10.6 12.5L5 6.9V7H3V4.9L1.1 3L2.4 1.7L22.1 21.4L20.8 22.7M19 5V7H21V5C21 3.9 20.1 3 19 3H6.2L8.2 5H19M19 12C19 13.1 18.7 14.1 18.3 15.1L19.8 16.6C20.6 15.3 21 13.7 21 12V9H19V12M16 9V7H10.2L12.2 9H16Z"/></svg>
